X: 1
T: The Swallow's Tail
M: 4/4
L: 1/8
K: Ador
|:eAcA eAcA | cdef gedB | G2BG dGBG | Bdef g2fg |
eAcA eAcA | cdef g2fg | afge fded | cABG A2gf:|
|:e~a3 aged | Bded gedB | G2BG dGBG | cdef g2fg |
e~a3 aged | cdef g2fg | afge fded |1cABG A2cd:|2cABG A2gf| 
